!!!!SEGMENT: pl-kk--kk-i-3--008-002_anonim--missa-solenne-et-in-terra.krn
!!!cenid: 15xx:600
!!!COM: Anonim
!!!COM-rismid: pe30004985
!!!CDT:
!!!CNT:
!!!OPR: Missa Solenne
!!!OTL: Et in terra
!!!OMV: 002
!!!PDT:
!!!AGN:
!!!SMS-siglum: PL-Kk
!!!SMS-shelfmark: Kk.I.3
!!!SMS-shelfwork: 008-002 M
!!!SMS-variant:
!!!SMS-altvar:
!!!NIFC-rismid: 1001145493
!!!URL-scan: http://repozytorium.nifc.pl/skany/pl-kk-nut--i-3
!!!ONB-nifc: UWAGA: Discantus (s. 40r-42v, skan 0042-0045), Tenor (s. 29v-31r, skan 0202-0203), Bassus (s. 38r-40r, skan 0341-0343). Następna część: Patrem
!!!key:
**kern	**text	**kern	**text	**kern	**text
*part3	*part3	*part2	*part2	*part1	*part1
*staff3	*staff3	*staff2	*staff2	*staff1	*staff1
*I"Bassus	*	*I"Tenor	*	*I"Discantus	*
*I'B	*	*I'T	*	*I'A	*
*Ibass	*	*Itenor	*	*Ialto	*
*ICvox	*	*ICvox	*	*ICvox	*
*clefF4	*	*clefC4	*	*clefC3	*
*k[]	*	*k[]	*	*k[]	*
*C:	*	*C:	*	*C:	*
=1-	=1-	=1-	=1-	=1-	=1-
1G	Et	1G,<	Et	1g	Et
1E	in	1G	in	1g	in
=2-	=2-	=2-	=2-	=2-	=2-
*2\right	*	*lig	*	*2\right	*
!	!	!	!	!	!
2E/	ter-	1c	.	2e\	ter-
2A\	.	.	.	2f\	.
1G	.	1B	.	1g	.
*	*	*Xlig	*	*	*
=3-	=3-	=3-	=3-	=3-	=3-
*lig	*	*	*	*lig	*
1C	-ra	1c	ter-	1e	.
1G	.	1d	.	1d	.
*Xlig	*	*	*	*Xlig	*
=4-	=4-	=4-	=4-	=4-	=4-
1G	pax	1d,<	-ra	1d	-ra
1G	.	1d,<	pax	1g	pax
=5-	=5-	=5-	=5-	=5-	=5-
*lig	*	*lig	*	*	*
1C	ho-	1c	ho-	2e\	ho-
.	.	.	.	2c/	.
1G	.	1B	.	2d/	.
.	.	.	.	2g\	.
*Xlig	*	*Xlig	*	*	*
=6-	=6-	=6-	=6-	=6-	=6-
*lig	*	*	*	*	*
1A	-mi-	1c	-mi-	2e\	.
.	.	.	.	2f\	.
1G	.	1d	.	2d/	.
.	.	.	.	1g\	.
*Xlig	*	*	*	*	*
=7-	=7-	=7-	=7-	=7-	=7-
*lig	*	*lig	*	*	*
1A	-ni-	1c	ni-	.	.
!	!	!	!	!LO:SIC:v:t=custos G	!
.	.	.	.	2f\	-mi-
!	!	!	!	!LO:PB:g=original	!
1G	.	1B	.	0g	-ni-
*Xlig	*	*Xlig	*	*	*
=8-	=8-	=8-	=8-	=8-	=8-
!LO:SIC:v:t=custos G	!	!	!	!	!
1G	-bus	1B,<	-bus	.	.
*lig	*	*	*	*	*
!LO:LB:g=original	!	!LO:SIC:v:t=custos c	!	!	!
1G	bo-	1B	bo-	1d	-bus
!	!	!LO:LB:g=original	!	!	!
=9-	=9-	=9-	=9-	=9-	=9-
!	!	!	!	!LO:SIC:v:l:s=bo-	!
1E	.	1c	.	1e	bor-
*Xlig	*	*	*	*	*
1D	-ne	1d	.	1f	.
=10-	=10-	=10-	=10-	=10-	=10-
*	*	*lig	*	*	*
!	!	!	!	!LO:SIC:v:l:s=-nae	!
1G	vo-	1d	-n(a)e	2d/	ne
.	.	.	.	1g	.
2E/	-lu(n)-	1c	.	.	.
2F/	.	.	.	1f\	.
*	*	*Xlig	*	*	*
=11-	=11-	=11-	=11-	=11-	=11-
2D/	.	1B	.	.	.
2G\	ta-	.	.	2d/	.
2E/	.	1c,<	.	2e/	vo-
1F\	.	.	.	1c\	-lun-
=12-	=12-	=12-	=12-	=12-	=12-
*	*	*lig	*	*	*
.	.	1A	vo-	.	.
2D/	.	.	.	2f\	.
!	!	!	!	!	!
1E	.	1G	.	2e/	.
.	.	.	.	1g\	.
*	*	*Xlig	*	*	*
=13-	=13-	=13-	=13-	=13-	=13-
1D	.	1A	-lu(n)-	.	.
.	.	.	.	2f\	.
1C	.	1c	.	1g	.
=14-	=14-	=14-	=14-	=14-	=14-
!	!	!	!	!LO:SIC:v:t=custos c	!
2C/	.	1G	-ta-	2e/	.
!	!	!	!	!LO:LB:g=original	!
2E/	.	.	.	2c/	.
!LO:SIC:v:t=custos GG	!	!	!	!	!
*	*	*lig	*	*	*
1D	.	1A	.	0d	-ta-
!LO:LB:g=original	!	!	!	!	!
=15-	=15-	=15-	=15-	=15-	=15-
!	!	!	!	!	!
2GG/	.	1G	.	.	.
1G	-tis	.	.	.	.
*	*	*Xlig	*	*	*
.	.	1G,<	-tis	2d/	-tis
2G\	.	.	.	1g\	lau-
=16-	=16-	=16-	=16-	=16-	=16-
*lig	*	*	*	*	*
1A	lau-	1D	lau-	.	.
.	.	.	.	2f\	.
1G	.	1E	.	1g	-da-
*Xlig	*	*	*	*	*
=17-	=17-	=17-	=17-	=17-	=17-
*lig	*	*	*	*	*
1E	-da-	1G	-da-	1g	.
1D	.	1A	.	1f	.
*Xlig	*	*	*	*	*
=18-	=18-	=18-	=18-	=18-	=18-
*	*	*lig	*	*	*
1A	mus	1F	-mus	2f\	-mus
.	.	.	.	1d	.
1G	.	1E	.	.	.
.	.	.	.	2c/	.
=19-	=19-	=19-	=19-	=19-	=19-
!	!	!LO:SIC:v:t=custos E	!	!	!
2F\	.	1D	.	2d/	.
1D	.	.	.	2f\	.
*	*	*Xlig	*	*	*
!	!	!LO:LB:g=original	!	!	!
.	.	1E	[te]	1e	.
2C/	.	.	.	.	.
=20-	=20-	=20-	=20-	=20-	=20-
1D	.	1F	.	1d	.
1GG	te	1G,<	.	1d	te
=21-	=21-	=21-	=21-	=21-	=21-
!	!	!	!	!LO:SIC:v:t=custos g	!
1G	be-	1G	be-	1d	be-
!	!	!	!	!LO:LB:g=original	!
1G	-ne-	1B	-ne-	1g	-ne-
=22-	=22-	=22-	=22-	=22-	=22-
1A	.	1c	.	1e	-di-
!LO:SIC:v:t=custos G	!	!	!	!	!
2D/	-di-	1d	.	2f\	-ci-
!LO:LB:g=original	!	!	!	!	!
2G\	-ci-	.	.	2g\	.
=23-	=23-	=23-	=23-	=23-	=23-
2F\	.	1d	-di-	2a\	.
2G\	.	.	.	2g\	.
1A	.	1c	.	2e\	.
.	.	.	.	2f\	.
=24-	=24-	=24-	=24-	=24-	=24-
1G	mus	1B	.	2d/	.
.	.	.	.	1g	.
1D	.	1A	.	.	.
.	.	.	.	2f\	.
=25-	=25-	=25-	=25-	=25-	=25-
1E	.	1G	-ci-	1g	.
1D	.	1A	.	1f	.
=26-	=26-	=26-	=26-	=26-	=26-
0C	.	1c	.	0e	-mus
.	.	1B	.	.	.
=27-	=27-	=27-	=27-	=27-	=27-
1C	te	1E	-mus	1g	te
1D	.	1F,<	.	1f	.
=28-	=28-	=28-	=28-	=28-	=28-
1BB	.	1G,<	te	1d	.
!	!	!	!	!LO:SIC:v:t=custos d	!
1AA	a-	1A	a-	1c	a-
!	!	!	!	!LO:LB:g=original	!
=29-	=29-	=29-	=29-	=29-	=29-
!LO:TX:t=P:problem=tekst niewidoczny	!	!	!	!	!
2BB/	-[do-	1D	-do-	2d/	-do-
1D	-ra]-	.	.	2f\	-ra-
.	.	1E	-ra-	1e	.
!LO:SIC:v:t=custos D	!	!	!	!	!
2C/	.	.	.	.	.
!LO:PB:g=original	!	!	!	!	!
=30-	=30-	=30-	=30-	=30-	=30-
1D	.	1F	.	1d	.
2GG/	.	1G	.	1g	.
1G\	.	.	.	.	.
=31-	=31-	=31-	=31-	=31-	=31-
*	*	*lig	*	*	*
.	.	1A	-mus	2e\	-mus
2F\	-mus	.	.	2f\	.
!	!	!LO:SIC:v:t=custos E	!	!	!
1G	.	1G,<	.	2e\	.
.	.	.	.	1d\	.
*	*	*Xlig	*	*	*
!	!	!LO:LB:g=original	!	!	!
=32-	=32-	=32-	=32-	=32-	=32-
1C	.	1E	te	.	.
.	.	.	.	1c	.
1D	.	1F	.	.	.
.	.	.	.	2B/	.
=33-	=33-	=33-	=33-	=33-	=33-
1C	te	1G,<	.	1c	te
1D	glo-	1F	glo-	2A/	glo-
.	.	.	.	2d/	-ri-
=34-	=34-	=34-	=34-	=34-	=34-
*lig	*	*	*	*	*
1F	-ri-	1A	-ri-	2c/	-fi-
.	.	.	.	2d/	-ca-
1E	.	1G	.	1e	.
*Xlig	*	*	*	*	*
=35-	=35-	=35-	=35-	=35-	=35-
!	!	!	!	!LO:SIC:v:t=custos d	!
0D	-fi-	1A	.	1f	.
!	!	!	!	!LO:LB:g=original	!
.	.	1B	.	1d	-mus
=36-	=36-	=36-	=36-	=36-	=36-
*	*	*lig	*	*	*
1C	.	1c	.	1e	.
1G	.	1B	.	2d/	.
.	.	.	.	1g\	.
*	*	*Xlig	*	*	*
=37-	=37-	=37-	=37-	=37-	=37-
1D	.	1A	.	.	.
.	.	.	.	2f\	.
1E	.	1G	.	1e	.
=38-	=38-	=38-	=38-	=38-	=38-
*	*	*lig	*	*	*
!LO:SIC:v:t=custos F	!	!	!	!	!
1F	.	1A	fi-	1c	.
!LO:LB:g=original	!	!	!	!	!
2F\	-ca-	1D	.	1f	.
1A\	.	.	.	.	.
*	*	*Xlig	*	*	*
=39-	=39-	=39-	=39-	=39-	=39-
.	.	1E	-ca-	1e	.
2G\	.	.	.	.	.
2F\	.	1F	.	2c/	.
2D/	.	.	.	2d/	.
=40-	=40-	=40-	=40-	=40-	=40-
1C	.	1G	.	1e	.
*lig	*	*lig	*	*	*
1F	.	1A	-mus	1f	.
=41-	=41-	=41-	=41-	=41-	=41-
1E	.	1G,<	.	2g\	.
.	.	.	.	1e	.
*Xlig	*	*Xlig	*	*	*
1C	.	1E	te	.	.
.	.	.	.	2e\	.
=42-	=42-	=42-	=42-	=42-	=42-
1D	mus	1F	.	1d	.
!	!	!	!	!	!
1GG	.	1G	.	1d	.
=43-	=43-	=43-	=43-	=43-	=43-
!	!	!LO:TX:t=P:problem=czerwona kreska pseudotaktowa	!	!LO:SIC:v:t=custos g	!
!	!	!	!	!	!
0GG;l	te	0Gl	.	0d;l	te
!	!	!	!	!	!
.	.	.	.	.	.
!	!	!LO:LB:g=original	!	!LO:PB:g=original	!
=44||	=44||	=44||	=44||	=44||	=44||
1G	Gra-	1G	Gra-	1g	Gra-
*	*	*lig	*	*	*
2E/	.	1c	.	2g\	.
2F\	.	.	.	2f\	.
=45-	=45-	=45-	=45-	=45-	=45-
1G	-ci-	1B	.	2d/	.
.	.	.	.	2g\	.
*	*	*Xlig	*	*	*
!LO:SIC:v:t=custos D	!	!	!	!	!
1A	-as	1c	-ti-	2e/	.
.	.	.	.	1f\	ci-
!LO:LB:g=original	!	!	!	!	!
=46-	=46-	=46-	=46-	=46-	=46-
2D/	.	1d	.	.	.
2G\	.	.	.	2g\	.
2F\	.	1d,<	-as	2a\	-as
2G\	.	.	.	2g\	.
=47-	=47-	=47-	=47-	=47-	=47-
*	*	*lig	*	*	*
2C/	.	1e	a-	2e/	a-
1c	a-	.	.	1a	.
.	.	1d	.	.	.
2B\	-gi-	.	.	2g\	-gi-
*	*	*Xlig	*	*	*
=48-	=48-	=48-	=48-	=48-	=48-
*lig	*	*lig	*	*	*
1A	.	1c	-gi-	2e/	.
.	.	.	.	2f/	.
1G	.	1B	.	2d/	.
.	.	.	.	1g\	.
*Xlig	*	*Xlig	*	*	*
=49-	=49-	=49-	=49-	=49-	=49-
2E\	.	1c	-mus	.	.
!	!	!	!	!LO:SIC:v:t=custos g	!
1F	-mus	.	.	1a	-mus
*	*	*lig	*	*	*
.	.	1d	.	.	.
!	!	!	!	!LO:LB:g=original	!
2G\	.	.	.	1g\	.
=50-	=50-	=50-	=50-	=50-	=50-
1A	ti-	1c,<	.	.	.
.	.	.	.	2f\	ti-
*	*	*Xlig	*	*	*
0G	-bi-	1d	ti-	0g	-bi
=51-	=51-	=51-	=51-	=51-	=51-
.	.	1d,<	-bi	.	.
1D	-pro-	1d	pro-	1f	.
=52-	=52-	=52-	=52-	=52-	=52-
1E	-pt(er)	1G,<	-pter	2e/	prop-
.	.	.	.	2c/	-ter
!LO:SIC:v:t=custos GG	!	!	!	!	!
1D	ma-	1A	ma-	1d	mag-
!LO:LB:g=original	!	!	!	!	!
=53-	=53-	=53-	=53-	=53-	=53-
2GG/	-gna(m)	1G,<	-gna(m)	1d	-(na)m
1G	.	.	.	.	.
.	.	1D	glo-	1d	tu-
2F\	tu-	.	.	.	.
=54-	=54-	=54-	=54-	=54-	=54-
*	*	*lig	*	*	*
1A	.	1F	.	2c/	.
.	.	.	.	2d/	.
!	!	!LO:SIC:v:t=custos F	!	!	!
2G\	.	1E	.	2e/	.
1E\	.	.	.	2g\	.
*	*	*Xlig	*	*	*
!	!	!LO:LB:g=original	!	!	!
=55-	=55-	=55-	=55-	=55-	=55-
.	.	1F	-ri-	1f	-a(m)
2D/	.	.	.	.	.
1E	-a(m)	1G	.	1e	.
=56-	=56-	=56-	=56-	=56-	=56-
1C	glo-	1G,<	-am	1e	glo-
*	*	*lig	*	*	*
1D	-ri-	1F	tu-	1d	-ri-
=57-	=57-	=57-	=57-	=57-	=57-
!	!	!	!	!LO:SIC:v:t=custos g	!
!	!	!	!	!	!
0GG;l	-am	1G	.	0d;<l	-am
*	*	*Xlig	*	*	*
!	!	!LO:TX:t=P:problem=czerwona kreska pseudotaktowa	!	!	!
.	.	1G	-a(m)	.	.
!LO:LB:g=original	!	!LO:LB:g=original	!	!LO:LB:g=original	!
=58||	=58||	=58||	=58||	=58||	=58||
1C	do-	1c	D(o-	1g	do-
1G	-mi-	1B	-mi)-	1g	-mi-
=59-	=59-	=59-	=59-	=59-	=59-
1F	-ne	1A,<	ne	1a	-ne
!LO:SIC:v:t=custos D	!	!	!	!	!
*	*	*	*	*lig	*
1E	de-	1c	De-	1g	de-
!LO:LB:g=original	!	!	!	!	!
=60-	=60-	=60-	=60-	=60-	=60-
1D	-us	1d	.	1f	.
*	*	*	*	*Xlig	*
1D	Rex	1d,<	-us	1f	-us
=61-	=61-	=61-	=61-	=61-	=61-
*lig	*	*lig	*	*	*
1C	.	1e	Rex	0g	rex
1G	.	1d	.	.	.
*Xlig	*	*Xlig	*	*	*
=62-	=62-	=62-	=62-	=62-	=62-
*	*	*lig	*	*	*
2A\	cae-	1c	cae-	2e\	cae-
2F\	.	.	.	2f\	-le-
1G	.	1B	.	2d/	.
.	.	.	.	1g\	.
*	*	*Xlig	*	*	*
=63-	=63-	=63-	=63-	=63-	=63-
2E/	-le-	1c	-le-	.	.
2F/	.	.	.	2f\	.
1D	.	1d	.	1f	.
=64-	=64-	=64-	=64-	=64-	=64-
1C	ſtis	1G,<	ſtis	1e	ſtis
1F	de-	1A	De-	1f	de-
=65-	=65-	=65-	=65-	=65-	=65-
1A	-us	1c,<	-us	2e\	-us
.	.	.	.	1c	pa-
!	!	!LO:SIC:v:t=custos c	!	!	!
1G	pa-	1d	Pa-	.	.
.	.	.	.	2B/	-ter
!	!	!LO:LB:g=original	!	!	!
=66-	=66-	=66-	=66-	=66-	=66-
*	*	*lig	*	*	*
!	!	!	!	!LO:SIC:v:t=custos d	!
1C	-ter	1c	-ter	1c	.
*lig	*	*	*	*	*
!	!	!	!	!LO:LB:g=original	!
1G	.	1B	.	2d/	.
.	.	.	.	1g\	.
=67-	=67-	=67-	=67-	=67-	=67-
1D	.	1A	.	.	.
.	.	.	.	2f\	.
*Xlig	*	*	*	*	*
!LO:SIC:v:t=custos D	!	!	!	!	!
1E	.	1G	.	1g	.
*	*	*Xlig	*	*	*
!LO:PB:g=original	!	!	!	!	!
=68-	=68-	=68-	=68-	=68-	=68-
*lig	*	*	*	*	*
1D	om-	1A	om-	1f	.
*	*	*lig	*	*	*
1C	.	1c	.	0e	om-
*Xlig	*	*	*	*	*
=69-	=69-	=69-	=69-	=69-	=69-
1C	-ni	1G	.	.	.
*	*	*Xlig	*	*	*
2D/	.	1D	-ni	1f	-ni
1F\	.	.	.	.	.
=70-	=70-	=70-	=70-	=70-	=70-
*	*	*lig	*	*	*
.	.	1F	.	2c/	.
2A\	.	.	.	2d/	.
1G	po-	1E	.	1e	.
*	*	*Xlig	*	*	*
=71-	=71-	=71-	=71-	=71-	=71-
1F	.	1F	po-	1d	.
*	*	*lig	*	*	*
2C/	.	1G	.	2e/	.
2E/	.	.	.	2c/	.
=72-	=72-	=72-	=72-	=72-	=72-
1D	.	1F	.	1d	.
*	*	*Xlig	*	*	*
[1GGl;	.	1G	.	1d	po-
=73-	=73-	=73-	=73-	=73-	=73-
!	!	!LO:TX:t=P:problem=czerwona kreska pseudotaktowa	!	!LO:SIC:v:t=custos d	!
0GG]	-tens	0Gl	-tens	0d;l	-tens
!	!	!	!	!LO:LB:g=original	!
=74||	=74||	=74||	=74||	=74||	=74||
*	*	*clefC3	*	*	*
1D	Do-	1d	D(o-	1d	do-
1A	-mi-	1c	-mi)-	1e	-mi-
=75-	=75-	=75-	=75-	=75-	=75-
2F\	-ne	1d,<	-ne	2f\	-ne
!LO:SIC:v:t=custos D	!	!	!	!	!
1G	fi-	.	.	2d/	fi-
.	.	1d	Fi-	2g\	.
!LO:LB:g=original	!	!	!	!	!
2D/	-li	.	.	2f\	.
=76-	=76-	=76-	=76-	=76-	=76-
1A	.	1c	-li	2e\	.
.	.	.	.	2f\	.
1G	.	1d	V-	1g	-li
=77-	=77-	=77-	=77-	=77-	=77-
2F/	v-	1f	-ni-	2c/	u-
2D/	-ni-	.	.	1d	-ni-
1E	.	1g	-ge-	.	.
.	.	.	.	2c/	-ge-
=78-	=78-	=78-	=78-	=78-	=78-
*	*	*lig	*	*	*
1D	.	1f	-ni-	1d	.
!	!	!LO:SIC:v:t=custos c	!	!	!
1A	ge-	1e	.	1e	ni-
*	*	*Xlig	*	*	*
=79-	=79-	=79-	=79-	=79-	=79-
*	*	*clefC4	*	*	*
1A	-ni-	1c	-te	2e\	-te
.	.	.	.	2f\	.
!	!	!	!	!LO:SIC:v:l:s=Je-	!
!	!	!	!	!LO:SIC:v:t=custos a	!
1G	-te	1d	Je-	1g	Jeſ-
!	!	!	!	!LO:PB:g=original	!
=80-	=80-	=80-	=80-	=80-	=80-
2D/	.	1f,<	-ſu	1a	-ſu
2F/	.	.	.	.	.
1C	.	1c	Chri-	2a\	chri-
.	.	.	.	2g\	.
=81-	=81-	=81-	=81-	=81-	=81-
1D	.	1A	.	1f	.
*	*	*lig	*	*	*
2GG/	Je-	1B-X	.	1d	-ſte
1G\	-ſu	.	.	.	.
=82-	=82-	=82-	=82-	=82-	=82-
!	!	!LO:TX:t=P:problem=dość niewyraźnie zapisany fragment	!	!	!
.	.	1A	.	2e/	.
!LO:SIC:v:t=custos G	!	!	!	!	!
2F\	Chri-	.	.	2f\	.
!LO:LB:g=original	!	!	!	!	!
2G\	.	1G	.	2d/	.
2E/	.	.	.	1g\	.
*	*	*Xlig	*	*	*
=83-	=83-	=83-	=83-	=83-	=83-
1D	-ſte	1A	.	.	.
.	.	.	.	2f\	.
1C	.	1c	.	1g	.
=84-	=84-	=84-	=84-	=84-	=84-
2C/	et	1G	.	2e/	.
2E/	ſan-	.	.	2c/	.
*	*	*lig	*	*	*
1D	.	1F	.	1d	.
=85-	=85-	=85-	=85-	=85-	=85-
1C	-cte	1E	.	1e	.
*	*	*Xlig	*	*	*
1D	.	1F	.	1B	et
=86-	=86-	=86-	=86-	=86-	=86-
!	!	!	!	!LO:SIC:v:t=custos c	!
1F	Spi-	1D	.	1d	ſan-
*	*	*lig	*	*	*
!	!	!	!	!LO:LB:g=original	!
2F\	-ri-	1F	.	2c/	-cte
2A\	.	.	.	2A/	.
=87-	=87-	=87-	=87-	=87-	=87-
1G	.	1E	.	2B/	.
.	.	.	.	1e	ſpi-
*	*	*Xlig	*	*	*
1F	.	1F	.	.	.
.	.	.	.	2d/	.
=88-	=88-	=88-	=88-	=88-	=88-
2E\	.	1G	.	1e	-ri-
2C/	.	.	.	.	.
*	*	*	*	*	*
1D	.	1G	.	1d	.
!LO:SIC:v:t=custos GG	!	!	!	!	!
!LO:LB:g=original	!	!	!	!	!
=89-	=89-	=89-	=89-	=89-	=89-
!	!	!LO:SIC:v:t=custos d	!	!	!
!	!	!LO:TX:t=P:problem=czerwona kreska pseudotaktowa	!	!	!
0GG;l	-tus	0G;l	-ſte	0d;l	-tus
!	!	!LO:LB:g=original	!	!	!
=90||	=90||	=90||	=90||	=90||	=90||
*	*	*clefC3	*	*	*
*	*	*lig	*	*	*
1D	do-	1d	Do-	1a	do-
1A	-mi-	1c	-mi-	1a	-mi-
*	*	*Xlig	*	*	*
=91-	=91-	=91-	=91-	=91-	=91-
1D	-ne	1d,<	-(n)e	1a	-ne
1G	de-	1d	De-	1g	de-
=92-	=92-	=92-	=92-	=92-	=92-
2F\	.	1d,<	-us	2a\	-us
1G	.	.	.	1g	.
.	.	1d	A-	.	.
2F\	-us	.	.	2d/	a-
=93-	=93-	=93-	=93-	=93-	=93-
!	!	!	!	!LO:SIC:v:t=custos f	!
2E/	a-	1g,<	-gn(us)	1e	.
2C/	-gnus	.	.	.	.
*	*	*lig	*	*	*
!	!	!	!	!LO:LB:g=original	!
1D	.	1f	De-	1f	-gnus
=94-	=94-	=94-	=94-	=94-	=94-
1C	.	1d	.	2e\	de-
.	.	.	.	2c/	-i
*	*	*Xlig	*	*	*
1c	de-	1g,<	-i	1d	fi-
=95-	=95-	=95-	=95-	=95-	=95-
*	*	*lig	*	*	*
2A\	.	1a	Fi-	2c/	.
!LO:SIC:v:t=custos G	!	!	!	!	!
2F\	.	.	.	2f\	.
!LO:LB:g=original	!	!	!	!	!
1G	.	1g	.	2d/	.
.	.	.	.	1e\	-li-
*	*	*Xlig	*	*	*
=96-	=96-	=96-	=96-	=96-	=96-
*	*	*lig	*	*	*
1D	-i	1f	-li-	.	.
.	.	.	.	1d	-us
1A	fi-	1e	.	.	.
.	.	.	.	2c/	.
*	*	*Xlig	*	*	*
=97-	=97-	=97-	=97-	=97-	=97-
2D/	.	1f	-us	2d/	.
2F/	.	.	.	1A	.
*	*	*lig	*	*	*
1E	-li-	1g	.	.	.
.	.	.	.	2G/	.
=98-	=98-	=98-	=98-	=98-	=98-
1D	-us	1f,<	.	1A,<	.
*	*	*Xlig	*	*	*
1C	p(at)-	1g	Pa-	1c	pa-
=99-	=99-	=99-	=99-	=99-	=99-
1F	-ris	1c,<	-tris	1A	-tris
!	!	!	!	!LO:SIC:v:t=custos e	!
1D	q(ui)	1d,<	q(ui)	0A	qui tol-
=100-	=100-	=100-	=100-	=100-	=100-
!	!	!	!	!	!
1D	tol-	1f	tol-	.	tol-
!	!	!LO:SIC:v:t=custos d	!	!LO:LB:g=original	!
1C	-lis	1g	-lis	1e	-lis
!	!	!LO:PB:g=original	!	!	!
=101-	=101-	=101-	=101-	=101-	=101-
*	*	*clefC4	*	*	*
1G	pec-	1d	pec-	2d/	pec-
.	.	.	.	1g	-ca-
*lig	*	*	*	*	*
1A	-ca-	1c	-ca-	.	.
.	.	.	.	2f\	.
=102-	=102-	=102-	=102-	=102-	=102-
1G	.	1d	.	1g	.
*Xlig	*	*	*	*	*
1F	-ta	1A	.	2c/	-ta
.	.	.	.	1f\	.
=103-	=103-	=103-	=103-	=103-	=103-
*lig	*	*lig	*	*	*
1G	.	1B-X	-ta	.	.
.	.	.	.	2e\	.
1D	.	1A	.	1f	.
*Xlig	*	*	*	*	*
=104-	=104-	=104-	=104-	=104-	=104-
1G	.	1G	.	1g	.
*	*	*Xlig	*	*	*
!LO:SIC:v:t=custos D	!	!	!	!	!
1A	mu(n)-	1c	mu(n)-	1e	mu(n)-
!LO:PB:g=original	!	!	!	!	!
=105-	=105-	=105-	=105-	=105-	=105-
!	!	!	!	!	!
*	*	*lig	*	*	*
0D	-di	1d	-di	1f	-di
.	.	1d	.	1f	.
*	*	*Xlig	*	*	*
=106-	=106-	=106-	=106-	=106-	=106-
1E	mi-	1G	mi-	1g	mi-
*lig	*	*	*	*	*
1D	-ſe-	1A	.	1f	-ſe-
=107-	=107-	=107-	=107-	=107-	=107-
!	!	!	!	!LO:SIC:v:t=custos g	!
1C	.	1c	.	2e/	.
!	!	!	!	!LO:LB:g=original	!
.	.	.	.	1g	-re-
*Xlig	*	*	*	*	*
*lig	*	*	*	*	*
1D	-re-	1A	-ſe-	.	.
.	.	.	.	2f\	-re
=108-	=108-	=108-	=108-	=108-	=108-
1C	.	1c	.	1g	.
*Xlig	*	*	*	*	*
1C	-re	1G	-re-	1e	.
=109-	=109-	=109-	=109-	=109-	=109-
*lig	*	*lig	*	*	*
1D	.	1F	-re	2f\	.
.	.	.	.	1d	.
1AA	.	1E	.	.	.
.	.	.	.	2c/	.
*Xlig	*	*	*	*	*
=110-	=110-	=110-	=110-	=110-	=110-
1A	no-	1D,<	.	1d	.
*	*	*Xlig	*	*	*
2D/	.	1F	no-	2d/	no-
2F/	.	.	.	2c/	.
=111-	=111-	=111-	=111-	=111-	=111-
2E/	.	1G	.	1e	.
2C/	.	.	.	.	.
1D	.	1G	.	1d	.
=112-	=112-	=112-	=112-	=112-	=112-
0GG;l	-bis	0G;l	-bis	0d;l	-bis
!LO:LB:g=original	!	!LO:LB:g=original	!	!	!
=113||	=113||	=113||	=113||	=113||	=113||
*	*	*clefC3	*	*	*
1D	Qui	1d,<	Qvi	1a	Qvi
!	!	!	!	!LO:SIC:v:t=custos g	!
1D	tol-	1f	tol-	1a	tol-
!	!	!	!	!LO:PB:g=original	!
=114-	=114-	=114-	=114-	=114-	=114-
2E/	-lis	1g,<	-lis	1g	-lis
2C/	.	.	.	.	.
1G	pec-	1d	pec-	1g	pec-
=115-	=115-	=115-	=115-	=115-	=115-
*lig	*	*	*	*	*
1A	-ca-	1c	-ca-	1f	-ca-
1G	.	1d	.	1g	.
*Xlig	*	*	*	*	*
=116-	=116-	=116-	=116-	=116-	=116-
2A\	.	1A	-ta	2e/	-ta
2F\	.	.	.	1a	.
*	*	*lig	*	*	*
1G	.	1B	.	.	.
.	.	.	.	2g\	.
=117-	=117-	=117-	=117-	=117-	=117-
1D	ta	1A	.	1f	.
2E\	.	1G,<	.	1g	.
2G\	.	.	.	.	.
*	*	*Xlig	*	*	*
=118-	=118-	=118-	=118-	=118-	=118-
1A	.	1c	mu(n)-	1e	mu(n)-
1D	mu(n)-	1d,<	-di	1f	-di
=119-	=119-	=119-	=119-	=119-	=119-
1G	-di	1d	ſus-	1g	ſus-
2C/	ſus-	1g	.	1e	.
1c\	.	.	.	.	.
=120-	=120-	=120-	=120-	=120-	=120-
.	.	1a	.	2e/	-ci-
!LO:SIC:v:t=custos G	!	!	!	!	!
2F\	.	.	.	2f/	.
!LO:LB:g=original	!	!	!	!	!
2G\	.	1g	-ci-	2d/	.
!	!	!	!	!LO:SIC:v:t=custos d	!
2C/	-ci-	.	.	2e/	.
!	!	!	!	!LO:LB:g=original	!
=121-	=121-	=121-	=121-	=121-	=121-
1G	-pe	1g,<	-pe	1d	-pe
2C/	de-	1g	de-	2e\	de-
2E/	-pre-	.	.	2c/	-pre-
=122-	=122-	=122-	=122-	=122-	=122-
1D	-ca-	1f	-pre-	1d	-ca-
!	!	!LO:SIC:v:t=custos c	!	!	!
1C	-ti-	1g	-ca-	1e	-ti-
!	!	!LO:LB:g=original	!	!	!
=123-	=123-	=123-	=123-	=123-	=123-
*	*	*clefC4	*	*	*
2F\	-o-	1c	-ti-	2f\	-o-
2E/	-ne(m)	.	.	2g\	.
2F\	.	1A	-o-	2a\	.
2D/	.	.	.	2f\	.
=124-	=124-	=124-	=124-	=124-	=124-
1E	.	1c,<	-ne(m)	1g	-ne(m)
0D	noſ-	1d	noſ-	0f	n(ost)-
=125-	=125-	=125-	=125-	=125-	=125-
.	.	1d,<	-tra(m)	.	.
1E	-tra(m)	1G	qui	1g	-ram
=126-	=126-	=126-	=126-	=126-	=126-
1D	.	1A,<	.	1f	qui
1G	qui	1G	ſe-	2d/	ſe-
.	.	.	.	2e\	.
=127-	=127-	=127-	=127-	=127-	=127-
*	*	*lig	*	*	*
2A\	ſe-	1F	-des	1f	.
1A	.	.	.	.	.
!	!	!	!	!LO:SIC:v:t=custos f	!
.	.	1E	.	1g	-des
!LO:SIC:v:t=custos A	!	!	!	!	!
2G\	.	.	.	.	.
!LO:LB:g=original	!	!	!	!LO:LB:g=original	!
=128-	=128-	=128-	=128-	=128-	=128-
1A	-des	1D,<	.	1f	.
*	*	*Xlig	*	*	*
2G\	.	1G	ad	2e\	ad
2E/	.	.	.	1g\	.
=129-	=129-	=129-	=129-	=129-	=129-
1D	.	1A,<	.	.	.
.	.	.	.	2f\	.
*	*	*lig	*	*	*
!	!	!	!	!LO:SIC:v:l:s=dex-	!
1C	dex-	1c	de-	2g\	ex-
.	.	.	.	2e\	.
=130-	=130-	=130-	=130-	=130-	=130-
*lig	*	*	*	*	*
1G	-te-	1B	.	1d	.
*	*	*Xlig	*	*	*
1C	.	1c	.	1e	.
*Xlig	*	*	*	*	*
=131-	=131-	=131-	=131-	=131-	=131-
1D	.	1A	-xte-	1d	-te-
1E	-ra(m)	1G,<	-ra(m)	1B	-ra(m)
=132-	=132-	=132-	=132-	=132-	=132-
*lig	*	*	*	*	*
1C	pa-	1c	Pa-	1e	pa-
*	*	*lig	*	*	*
1G	.	1d	.	2d/	.
.	.	.	.	1g\	.
*Xlig	*	*	*	*	*
=133-	=133-	=133-	=133-	=133-	=133-
1A	.	1c	.	.	.
.	.	.	.	2f\	.
*	*	*Xlig	*	*	*
*	*	*lig	*	*	*
0G	tris	1d	-tris	0g	-tris
!	!	!LO:SIC:v:t=custos G	!	!	!
.	.	1d	.	.	.
*	*	*Xlig	*	*	*
!	!	!LO:LB:g=original	!	!	!
=134-	=134-	=134-	=134-	=134-	=134-
!	!	!	!	!	!
.	.	.	.	.	.
1E	mi-	1G	mi-	1g	mi-
=135-	=135-	=135-	=135-	=135-	=135-
*lig	*	*lig	*	*	*
!	!	!	!	!LO:SIC:v:t=custos e	!
1D	-ſe-	1A	.	1f	-ſe-
!	!	!	!	!LO:LB:g=original	!
1C	.	1c	.	2e\	-re-
.	.	.	.	1g\	-re
*Xlig	*	*Xlig	*	*	*
=136-	=136-	=136-	=136-	=136-	=136-
*lig	*	*	*	*	*
1D	-re-	1A	-ſe-	.	.
.	.	.	.	2f\	.
1C	.	1c	.	1g	.
*Xlig	*	*	*	*	*
=137-	=137-	=137-	=137-	=137-	=137-
1C	-re	1G	-re-	1e	.
*lig	*	*	*	*	*
1D	.	1F	-re	2f\	.
.	.	.	.	1d\	.
=138-	=138-	=138-	=138-	=138-	=138-
!LO:SIC:v:t=custos A	!	!	!	!	!
1AA	.	1E	.	.	.
.	.	.	.	2c/	.
*Xlig	*	*	*	*	*
!LO:LB:g=original	!	!	!	!	!
1A	.	1F,<	n.	1d	.
=139-	=139-	=139-	=139-	=139-	=139-
*	*	*	*	*	*
2D/	no-	1F	o-	2d/	no-
2F/	.	.	.	2c/	.
*	*	*lig	*	*	*
2E/	.	1G	.	1e	.
2C/	.	.	.	.	.
=140-	=140-	=140-	=140-	=140-	=140-
1D	.	1F	.	1d	.
*	*	*Xlig	*	*	*
!	!	!	!	!LO:SIC:v:t=custos g	!
1GG	.	[1G;l	-bis	[1d;l	-bis
=141-	=141-	=141-	=141-	=141-	=141-
0GG;l	-bis	0G]	.	0d]	.
!	!	!	!	!LO:LB:g=original	!
=142||	=142||	=142||	=142||	=142||	=142||
1C	Qvo-	1c	Qv(o-	1g	Qvo-
1E	-ni-	1B	ni-	1g	-ni-
=143-	=143-	=143-	=143-	=143-	=143-
1F	-a(m)	1A,<	-a)m	1a	-a(m)
*	*	*clefC3	*	*	*
2F/	tu	1c	tu	2a\	tu
2E/	.	.	.	1g\	ſo-
=144-	=144-	=144-	=144-	=144-	=144-
1D	.	1d,<	.	.	.
.	.	.	.	2f\	.
*	*	*lig	*	*	*
2C/	.	1e	ſo-	1g	.
1c\	ſo-	.	.	.	.
=145-	=145-	=145-	=145-	=145-	=145-
.	.	1d	.	1g	.
2B\	.	.	.	.	.
!LO:SIC:v:t=custos A	!	!	!	!	!
*	*	*Xlig	*	*	*
!LO:PB:g=original	!	!	!	!	!
*clefF3	*	*lig	*	*	*
1A	-lus	1c	-lus	1e	.
=146-	=146-	=146-	=146-	=146-	=146-
1G	.	1B,<	.	1g	-lus
*	*	*Xlig	*	*	*
2F/	ſan-	1c	ſan-	2a\	ſan-
2A/	.	.	.	2f\	.
=147-	=147-	=147-	=147-	=147-	=147-
*	*	*lig	*	*	*
1G	.	1d	.	1g	-c-
!	!	!LO:SIC:v:t=custos d	!	!	!
1E	.	1c	.	1g	.
*	*	*Xlig	*	*	*
!	!	!LO:LB:g=original	!	!	!
=148-	=148-	=148-	=148-	=148-	=148-
*	*	*lig	*	*	*
0D	-ctus	1d	-ctus	1f	ctus
.	.	1d,<	.	1f	.
*	*	*Xlig	*	*	*
=149-	=149-	=149-	=149-	=149-	=149-
*lig	*	*	*	*lig	*
1E	tu	1G	Tu	1g	tu
!	!	!	!	!LO:SIC:v:t=custos e	!
1D	.	1d,<	.	1f	.
*Xlig	*	*	*	*Xlig	*
!	!	!	!	!LO:PB:g=original	!
=150-	=150-	=150-	=150-	=150-	=150-
1A	ſo-	1c	ſo-	1e	ſo-
1F	-lus	1f,<	-lus	1a	-lus
=151-	=151-	=151-	=151-	=151-	=151-
*lig	*	*	*	*	*
1c	do-	1e	Do-	1g	do-
*	*	*lig	*	*	*
1F	.	1f	.	1a	.
*Xlig	*	*	*	*	*
=152-	=152-	=152-	=152-	=152-	=152-
1G	.	1d	.	1g	.
*lig	*	*Xlig	*	*	*
1A	-mi-	1c	-mi-	1e	-mi-
=153-	=153-	=153-	=153-	=153-	=153-
1D	.	1d	.	0f	-nus
*Xlig	*	*	*	*	*
1D	-nus	1d,<	-nus	.	.
=154-	=154-	=154-	=154-	=154-	=154-
!LO:SIC:v:t=custos E	!	!	!	!	!
*	*	*	*	*lig	*
1D	tu	1d	tu	1f	tu
!LO:LB:g=original	!	!	!	!	!
2E/	.	1g,<	.	1e	.
2C/	.	.	.	.	.
*	*	*	*	*Xlig	*
=155-	=155-	=155-	=155-	=155-	=155-
1D	ſo-	1f	ſo-	1d	ſo-
2C/	-lus	1g,<	-lus	1e	-lus
1c\	al-	.	.	.	.
=156-	=156-	=156-	=156-	=156-	=156-
*	*	*lig	*	*	*
.	.	1a	al-	2e/	al-
2A\	-tis-	.	.	2c/	-tis-
2B\	.	1g	.	2d/	.
2c\	.	.	.	2e/	.
*	*	*Xlig	*	*	*
=157-	=157-	=157-	=157-	=157-	=157-
2d\	.	1f	-tiſ-	2f/	.
!	!	!	!	!LO:SIC:v:t=custos c	!
2D/	.	.	.	1d	ſi-
1A	ſi-	1e	-ſi-	.	.
!	!	!	!	!LO:LB:g=original	!
.	.	.	.	2c/	-mus
=158-	=158-	=158-	=158-	=158-	=158-
1D	-mus	1d,<	-m(us)	1d	Je-
*	*	*lig	*	*	*
!	!	!LO:TX:t=P:problem=praktycznie niewidoczne dźwięki	!	!	!
2F/	Je-	1c	Je:-	2f\	.
2C/	-ſu	.	.	2e\	.
=159-	=159-	=159-	=159-	=159-	=159-
2D/	.	1B	.	2d/	.
2E/	.	.	.	2g\	-ſu
*	*	*Xlig	*	*	*
*	*	*	*	*	*
1F	.	1c	.	1f	.
!	!	!LO:PB:g=original	!	!	!
=160-	=160-	=160-	=160-	=160-	=160-
*	*	*clefC4	*	*	*
!LO:SIC:v:t=custos BB	!	!	!	!	!
0C	.	1c	-ſu	0e	Chri-
.	.	1G	chr(is-	.	.
!LO:LB:g=original	!	!	!	!	!
=161-	=161-	=161-	=161-	=161-	=161-
!	!	!	!	!	!
1GG	chr(is-	[0Gl	-t)e	1e	.
1GG;	-t)e	.	.	1d	.
=162-	=162-	=162-	=162-	=162-	=162-
1G;<	.	0G]	.	0d;l	-ſte
!	!	!	!	!	!
1G;;	.	.	.	.	.
=163||	=163||	=163||	=163||	=163||	=163||
1A	cu(m)	1D,<	Cu(m)	1d	Cu(m)
1F	ſan-	1F	ſan-	1d	ſan-
=164-	=164-	=164-	=164-	=164-	=164-
2E/	.	1G,<	-cto	1e	-cto
2C/	-cto	.	.	.	.
!	!	!	!	!LO:SIC:v:t=custos g	!
1G	ſpi-	1G	Spi-	2d/	spi-
!	!	!	!	!LO:LB:g=original	!
.	.	.	.	1g\	.
=165-	=165-	=165-	=165-	=165-	=165-
*lig	*	*lig	*	*	*
1A	-ri-	1c	.	.	.
.	.	.	.	2f\	-ri-
1G	.	1B	.	1g	-tu
*Xlig	*	*Xlig	*	*	*
=166-	=166-	=166-	=166-	=166-	=166-
2C/	.	1c	-ri-	2e\	.
1c	.	.	.	2f\	.
*	*	*lig	*	*	*
.	.	1d	.	1g	.
2B\	.	.	.	.	.
=167-	=167-	=167-	=167-	=167-	=167-
1A	.	1c	.	1e	.
*	*	*Xlig	*	*	*
2F/	.	1d,<	tu	2f\	.
1G\	-tu	.	.	2d/	.
=168-	=168-	=168-	=168-	=168-	=168-
.	.	1d	in	2g\	in
!LO:SIC:v:t=custos A	!	!	!	!	!
2D/	in	.	.	1a	glo-
*	*	*lig	*	*	*
!LO:LB:g=original	!	!	!	!	!
1A	.	1e	.	.	.
.	.	.	.	2a\	-ri-
=169-	=169-	=169-	=169-	=169-	=169-
2D/	.	1d,<	.	2f\	.
2G\	glo-	.	.	2g\	.
*	*	*Xlig	*	*	*
2F\	-ri-	1d	glo-	2a\	.
2G\	.	.	.	2g\	.
=170-	=170-	=170-	=170-	=170-	=170-
*	*	*lig	*	*	*
2A\	.	1c	-ri-	2e\	.
!	!	!	!	!LO:SIC:v:t=custos d	!
2F/	.	.	.	2f\	.
!	!	!	!	!LO:LB:g=original	!
1G	.	1B	.	2d/	.
.	.	.	.	1g\	.
*	*	*Xlig	*	*	*
=171-	=171-	=171-	=171-	=171-	=171-
*	*	*lig	*	*	*
1D	-a	1A	-a	.	.
.	.	.	.	2f\	.
!	!	!LO:SIC:v:t=custos A	!	!	!
1E	de-	1G,<	.	1g	-a
*	*	*Xlig	*	*	*
!	!	!LO:LB:g=original	!	!	!
=172-	=172-	=172-	=172-	=172-	=172-
*lig	*	*	*	*	*
1D	.	1A	De-	1f	de-
1C	.	1c	.	1e	.
*Xlig	*	*	*	*	*
=173-	=173-	=173-	=173-	=173-	=173-
*lig	*	*	*	*	*
1C	-i	1G,<	-i	2e\	.
.	.	.	.	1c	.
*	*	*lig	*	*	*
1D	.	1F	Pa-	.	.
.	.	.	.	2B/	-i
*Xlig	*	*	*	*	*
=174-	=174-	=174-	=174-	=174-	=174-
!LO:TX:t=P:problem=tekst urwany	!	!	!	!	!
2C/	pa-	1E	.	1c	pa-
1c	.	.	.	.	.
*	*	*Xlig	*	*	*
.	.	1F	.	2c/	.
2A\	.	.	.	2d/	.
=175-	=175-	=175-	=175-	=175-	=175-
2B\	.	1G	.	2e\	.
1d	.	.	.	2d\	.
*	*	*lig	*	*	*
!	!	!	!	!	!
.	.	1F	-tris	1f	.
!LO:SIC:v:t=custos B	!	!	!	!	!
1c\	.	.	.	.	.
!LO:LB:g=original	!	!	!	!	!
=176-	=176-	=176-	=176-	=176-	=176-
!	!	!	!	!	!
*	*	*	*	*lig	*
.	.	1F	.	1f	.
2B\	.	.	.	.	.
*	*	*Xlig	*	*	*
1c	.	1E	.	1e	.
*	*	*	*	*Xlig	*
=177-	=177-	=177-	=177-	=177-	=177-
1A	-[tris	1D,<	.	1f	-tris
*lig	*	*	*	*	*
!	!	!	!	!LO:SIC:v:t=custos d	!
1G	A-	1G	A-	1d	A-
!	!	!	!	!LO:LB:g=original	!
=178-	=178-	=178-	=178-	=178-	=178-
1D	.	1A	.	1d	.
*Xlig	*	*	*	*	*
1C	.	1c	.	1e	.
=179-	=179-	=179-	=179-	=179-	=179-
*lig	*	*	*	*	*
1G	.	1B	.	2d/	.
.	.	.	.	1g	.
1D	.	1A	.	.	.
.	.	.	.	2f\	.
*Xlig	*	*	*	*	*
=180-	=180-	=180-	=180-	=180-	=180-
*	*	*lig	*	*	*
1C	.	1c	.	1g	.
*lig	*	*	*	*	*
1E	.	1G	.	1e	.
*	*	*Xlig	*	*	*
=181-	=181-	=181-	=181-	=181-	=181-
*	*	*	*	*lig	*
1D	.	1F	.	1f	.
*Xlig	*	*	*	*	*
1E	.	1G	.	1e	.
*	*	*	*	*Xlig	*
=182-	=182-	=182-	=182-	=182-	=182-
*	*	*	*	*lig	*
1F	.	1A	.	1c	.
1G	.	1B-X	.	1g	.
*	*	*	*	*Xlig	*
=183-	=183-	=183-	=183-	=183-	=183-
*lig	*	*lig	*	*lig	*
1C	.	1G	.	1e	.
1D	.	1F	.	1d	.
*Xlig	*	*Xlig	*	*Xlig	*
=184-	=184-	=184-	=184-	=184-	=184-
*	*	*lig	*	*	*
0D	.	1F	.	0d	.
.	.	1F	.	.	.
*	*	*Xlig	*	*	*
=185-	=185-	=185-	=185-	=185-	=185-
2GG/	.	[0Gl	men     .	2B/	.
1C	.	.	.	1c	.
.	.	.	.	.	.
2BB/	.	.	.	2d/	.
=186-	=186-	=186-	=186-	=186-	=186-
1C	.	0G]	.	1e	.
1GG;l	-men]	.	.	1d;;l	-men
==	==	==	==	==	==
*-	*-	*-	*-	*-	*-
!!!system-decoration: [(s1,s2,s3)]
!!!AIN: 1 alto 1 bass 1 tenor
!!!ENC: Filip Voros
!!!END: 2021-12-30
!!!RDF**kern: < = below
!!!RDF**kern: l = terminal long
!!!EED: Andrzej Borzym
!!!EST: 2022-01-02
